X:19005
T:Sussex Carol
T:On Christmas Night, All Christians Sing
R:Jig
C:Trad.
O:England, Sussex
Z:Paul Hardy's Xmas Tunebook 2019 (see www.paulhardy.net). Creative Commons cc by-nc-sa licenced.
M:6/8
L:1/8
Q:3/8=80
K:G
d|"G" d2 B "C" c2 d|"G" BAG "D" A2 F|"G" G2 G "Am" ABc|"D" B2 A "G" G2:|
A|"D" A3  A2 G|ABc dcB| A6|"G" d3 "C" e3|"D" d3 "Am" c2 B|"D" AGA "G"HG2|]
W:On Christmas night all Christians sing, To hear the news the angels bring,
W:On Christmas night all Christians sing, To hear the news the angels bring,
W:News of great joy news of great mirth, News of our Redeemer's birth

